X: 1
T: Karjalan poikia [D]
T: Boys of Karelia
T: L\"oyly\"a lis\"a\"a
R: polka
O: trad Finland
Z: John Chambers <jc:trillian.mit.edu>
M: 2/4
L: 1/16
K: D
|: "D"a2a2 a2a2 | ~a2ga b2a2 | f2f2 f2f2 | ~f2ef g2f2 \
| "A7"e2[e2A2] c2Ac | e2[e2A2] c2Ac | e2g2 f2e2 |1 d2c2 B2A2 :|2 "D"e2d2 d4 |]
|: "D"A2BA F2A2 | d6 e2 | f2gf e2f2 | "G"g2z2 "D"f4 \
| "A7"e2[e2A2] c2Ac | e2[e2A2] c2Ac | e2g2 f2e2 |1 d2c2 B2A2 :|2 "D"e2d2 d4 |]
w: | | | |~ Hej!
